X:1
T:Michael Relihan's
R:reel
Z:Paul de Grae  irtrad-l 2001-12-3
M:4/4
L:1/8
K:D
d3 d =cAGB|Addc dfag|f2 ed =cAAG|EG=cE ED D2:||
fddc d2 cd|eaag efge|fddc d2 cd|eaag edde|
fddc d2 cd|eaag efge|f2 ec d2 cd|eaag efge||
